X: 10982
T: March
T: From the Opera of "Blue Beard."
C: Michael Kelly
Q: "Majestically."
%R: march
B: W. Hamilton "Universal Tune-Book" Vol. 1 Glasgow 1844 p.98 #2
S: http://imslp.org/wiki/Hamilton's_Universal_Tune-Book_(Various)
Z: 2016 John Chambers <jc:trillian.mit.edu>
M: C
L: 1/8
P: DUET.
K: C
% - - - - - - - - - - - - - - - - - - - - - - - - -
|:\
[g3e3][fd] [e2c2][d2G2] | [c4E4] [d4G4] |\
([ec][dB][ec][fd]) [g2e2]([fd][ec]) | [d2B2][dB]>[dB] [d2B2]z2 |\
[g3e3][fd] [e2c2][d2G2] | [c4E4] [d4G4] |\
[ec]>[dB][ec]>[fd] [e2c2][d2G2] | [c2E2][cE]>[cE] [c2E2]"^Fin."z2 H:|
[d3B3][cA] [B2G2][c2A2] | [d4B4] [e4c4] |\
[fd]>[ec][fd]>[ge] [a2f2][f2d2] | [d2B2][dB]>[dB] [d2B2]z2 |\
[d3B3][cA] [B2G2][c2A2] | "^cres.   -   -   -   -   -"[d2B2][dB]>[dB] [d2B2][e2c2] |\
[d2B2]!f![c2A2] [B2G2][A2^F2] | G2G>G G2 "^D.C."z2 |]
% - - - - - - - - - - - - - - - - - - - - - - - - -

%%sep 1 1 500
%%sep 1 1 500

